!!!COM: Bach, Johann Sebastian
!!!OPR: Joh. Seb. Bachs vierstimmige Choralgesänge
!!!XEN: Four-part Chorales
!!!OTL: Chorale 162. Valet will ich dir geben
!!!SCT: BWV 415
!!!SCA: Thematisch-systematisches Verzeichnis der musikalischen Werke Johann Sebastian Bach: Bach-Werke-Verzeichnis (Schmieder)
!!!YOR: Bach Gesellschaft Edition xxxix
!!!ENC: Steven Rasmussen
!!!CDT: 1685/3//-1750/7/28/
!!!OCY: Deutschland
!!!YEC: Copyright (c) 1994, 2000 Center for Computer Assisted Research in the Humanities
!!!YEM: Rights to all derivative editions reserved
!!!YEN: United States of America
**kern	**kern	**kern	**kern	**silbe
*I:[BASSO]	*I:[TENORE]	*I:[ALTO]	*I:[SOPRANO]	*I:[SOPRANO]
*>[A,A,B]	*>[A,A,B]	*>[A,A,B]	*>[A,A,B]	*
*>A	*>A	*>A	*>A	*
*clefF4	*clefGv2	*clefG2	*clefG2	*
*k[f#c#]	*k[f#c#]	*k[f#c#]	*k[f#c#]	*
*D:	*D:	*D:	*D:	*
*M4/4	*M4/4	*M4/4	*M4/4	*
8DL	8F#L	4A	4d	Va-dein
8C#J	8EJ	.	.	.
=1	=1	=1	=1	=1
8DL	8F#L	4d	4a	-letsünd-
8EJ	8GJ	.	.	.
8F#L	8AL	4d	4a	will-lich
8DJ	8F#J	.	.	.
8GL	4G	4d	4b	ichbö-
8F#J	.	.	.	.
4E	8GL	4g	4cc#	dir-ses
.	8AJ	.	.	.
=2	=2	=2	=2	=2
8BBL	4B	4g	2dd	ge-Le-
8C#J	.	.	.	.
4D	8AL	8f#L	.	.
.	8GJ	8eJ	.	.
4DD;	4A;	4f#;	4dd;	-ben,-ben
4d	4a	8aL	4ff#	dudurch-
.	.	8bJ	.	.
=3	=3	=3	=3	=3
4A#	4g	4cc#	4ee	ar--aus
8BL	4f#	4b	4dd	-gemir
8AnJ	.	.	.	.
4G#	4fn	4b	4dd	fal-nicht
4A	4e	4a	4cc#	-schege-
=4	=4	=4	=4	=4
2.D;	2.f#;	2.a;	2.dd;	Welt,-fällt.
=:|!	=:|!	=:|!	=:|!	=:|!
*>B	*>B	*>B	*>B	*
4D	8f#L	4a	8ddL	Im
.	8gJ	.	8eeJ	.
=5	=5	=5	=5	=5
8dL	4a	4dd	4ff#	Him-
8c#J	.	.	.	.
8BL	4d	8ddL	4ff#	-mel
8AJ	.	8cc#J	.	.
8G#L	8eL	8bL	4.ee	ist
8EJ	8dJ	8g#J	.	.
8F#L	8c#L	8aL	.	.
8G#J	8BJ	8bJ	8dd	gut
=6	=6	=6	=6	=6
8AL	4A	8eL	8cc#L	woh-
8G#	.	8f#J	8bJ	.
8F#	4G#	4g#	4cc#	.
8E#J	.	.	.	.
4F#;	4c#;	4f#;	4a;	-nen,
4F#	8f#L	4a	4cc#	hin-
.	8eJ	.	.	.
=7	=7	=7	=7	=7
8BL	4d	8aL	4dd	-auf
8BBJ	.	8g#J	.	.
8C#L	4e	4a	4cc#	steht
8DJ	.	.	.	.
8EL	8eL	4a	4b	mein
8DJ	8f#J	.	.	.
8EL	8eL	4g#	4b	Be-
8EEJ	8dJ	.	.	.
=8	=8	=8	=8	=8
2.AA;	2.c#;	2.e;	2.a;	-gier,
4AA	4A	4e	4a	da
=9	=9	=9	=9	=9
8DL	4A	4d	8f#L	wird
8EJ	.	.	8gJ	.
8F#L	8dL	4d	4a	Gott
8DJ	8cnJ	.	.	.
4G	8BL	8dL	4b	e-
.	8c#J	8eJ	.	.
8F#L	8dL	4f#	4a	-wig
8EJ	8cnJ	.	.	.
=10	=10	=10	=10	=10
4D#	2B	4f#	4a	loh-
4E	.	4e	8gL	.
.	.	.	8f#J	.
4BB;	4B;	4d#;	4f#;	-nen
4FF#	4cn	4dn	4a	dem,
=11	=11	=11	=11	=11
8GGL	4B	4d	4g	der
8AAJ	.	.	.	.
8BBL	4B	4d	4f#	ihm
8AAJ	.	.	.	.
8GGL	4B	4d	4e	dient
8EEJ	.	.	.	.
4AA	8AL	4c#	4e	all-
.	8GJ	.	.	.
=12	=12	=12	=12	=12
2.DD;	2.F#;	2.A;	2.d;	-hier.
==|!	==|!	==|!	==|!	==|!
*-	*-	*-	*-	*-
!!!RWG: Key is interpreted using the Humdrum key tool.
!!!URL-pdf: https://s9.imslp.org/files/imglnks/usimg/6/6b/IMSLP24489-PMLP09471-CCARH_Bach_Chorales.pdf#page=113 Musedata edition
!!!URL-pdf: https://s9.imslp.org/files/imglnks/usimg/7/7a/IMSLP04155-Bach_-_BGA_253-438.pdf#page=89 	Bach-Gesellschaft Ausgabe, Band 39 (pp.175-276) Leipzig: Breitkopf und Härtel, 1892. Plate B.W. XXXIX.
!!!END: 1994/08/03
!!!EMD: Converted from MuseData to Humdrum Dec 19, 2000, by Andreas Kornstaedt using muse2kern.
!!!EED: Craig Stuart Sapp
!!!EEV: 2024/03/31
!!!filter-keyboard: satb2gs
!!!title: @{OTL} (@{SCT})
